X:1
T:Miss E. Macleod's Reel
C:Robert Mackintosh
M:C
L:1/8
R:Reel
B:Robert Mackintosh – “A Fourth Collection of New Strathspey Reels, also some Famous old Reels” (1804, p. 32)
N:Dedicated to the Dutchess [sic] of Manchester
N:Robert “Red Rob” Mackintosh (c. 1745-1808) was a Scottish violinist and
N:composer active in Edinburgh at the end of the 18th century. Originally from
N:Tullymet, near Pitlochry, Perthshire.  He moved to London in the last decade
N:of his life.
Z:AK/Fiddler’s Companion
K:A
c|A2 A,C EFAE|A2 EA FBGE|A2 aA fAeA|GBEd cAA:|
g|a2 Aa f2 df|e2 cA B(GFE)|a2 Aa f2 df|edcB cAAg|
a2 Aa f2 df|e2 cA BGFE|FDBA GEdB|ceBd cAA||

